img/sdg5-10-watermark01.svg

<svg height="479.554" viewBox="0 0 793.934 479.554" width="793.934" xmlns="http://www.w3.org/2000/svg"><g fill="#ff3a21" opacity=".1"><path d="m409.536 598.594a107.958 107.958 0 1 1 107.959-107.958 108.028 108.028 0 0 1 -107.959 107.958m207.24-312.694h-111.963a1.363 1.363 0 0 0 -1.335 1.5v37.043a1.471 1.471 0 0 0 1.335 1.5h44.551l-49.557 49.557a146 146 0 0 0 -90.437-31.37c-80.76 0-146.67 65.743-146.67 146.669 0 74.419 55.731 135.99 127.648 145.335v42.883h-44.218a1.471 1.471 0 0 0 -1.5 1.335v39.88a1.5 1.5 0 0 0 1.5 1.5h44.218v42.215a1.471 1.471 0 0 0 1.335 1.5h39.879a1.5 1.5 0 0 0 1.5-1.5v-42.377h44.218a1.5 1.5 0 0 0 1.5-1.5v-39.881a1.363 1.363 0 0 0 -1.5-1.335h-43.88v-43.554a146.535 146.535 0 0 0 96.111-228.931l48.723-48.723v41.715a1.5 1.5 0 0 0 1.5 1.5h37.21a1.5 1.5 0 0 0 1.5-1.5v-111.961a1.774 1.774 0 0 0 -1.669-1.5" transform="translate(-262.7 -285.9)"/><path d="m443.219 382.1h-130.819a1.471 1.471 0 0 0 -1.5 1.335v31.7a1.471 1.471 0 0 0 1.5 1.335h130.819a1.363 1.363 0 0 0 1.5-1.335v-31.7a1.471 1.471 0 0 0 -1.5-1.335" transform="translate(-230.474 -221.581)"/><path d="m443.219 416h-130.819a1.471 1.471 0 0 0 -1.5 1.335v31.7a1.471 1.471 0 0 0 1.5 1.335h130.819a1.363 1.363 0 0 0 1.5-1.335v-31.7a1.471 1.471 0 0 0 -1.5-1.335" transform="translate(-230.474 -198.918)"/></g><g fill="#dd1367" opacity=".1" transform="translate(355.744 19.607)"><path d="m454.791 436h-154.482a1.764 1.764 0 0 0 -1.709 1.865v46.469a1.764 1.764 0 0 0 1.709 1.865h154.482a1.764 1.764 0 0 0 1.709-1.865v-46.469a1.866 1.866 0 0 0 -1.709-1.865" transform="translate(-158.378 -192.583)"/><path d="m454.791 372.5h-154.482a1.764 1.764 0 0 0 -1.709 1.865v46.469a1.764 1.764 0 0 0 1.709 1.865h154.482a1.764 1.764 0 0 0 1.709-1.865v-46.469a1.764 1.764 0 0 0 -1.709-1.865" transform="translate(-158.378 -227.772)"/><path d="m451.365 353.857-74.132-74.132a1.414 1.414 0 0 0 -1.865 0l-74.132 74.132a1.269 1.269 0 0 0 .933 2.176h148.264a1.287 1.287 0 0 0 .932-2.176" transform="translate(-157.128 -279.375)"/><path d="m443.176 522.354 74.132-74.132a1.415 1.415 0 0 0 0-1.865l-74.132-74.132a1.3 1.3 0 0 0 -2.176.932v148.264a1.3 1.3 0 0 0 2.176.933" transform="translate(-79.469 -228.116)"/><path d="m301.224 514.276 74.132 74.132a1.415 1.415 0 0 0 1.865 0l74.132-74.132a1.269 1.269 0 0 0 -.932-2.176h-148.265a1.3 1.3 0 0 0 -.932 2.176" transform="translate(-157.116 -150.413)"/><path d="m282.857 372.224-74.133 74.133a1.415 1.415 0 0 0 0 1.865l74.133 74.132a1.3 1.3 0 0 0 2.176-.933v-148.265a1.3 1.3 0 0 0 -2.176-.932" transform="translate(-208.375 -228.116)"/></g></svg>

<svg xmlns="http://www.w3.org/2000/svg" width="793.934" height="479.554" viewBox="0 0 793.934 479.554">
  <g id="watermark-5-10-01" transform="translate(-700.238 -908.122)">
    <g id="Group_2243" data-name="Group 2243" transform="translate(700.238 908.122)" opacity="0.1">
      <path id="Path_2312" data-name="Path 2312" d="M409.536,598.594A107.958,107.958,0,1,1,517.495,490.636,108.028,108.028,0,0,1,409.536,598.594M616.776,285.9H504.813a1.363,1.363,0,0,0-1.335,1.5v37.043a1.471,1.471,0,0,0,1.335,1.5h44.551L499.807,375.5a146,146,0,0,0-90.437-31.37c-80.76,0-146.67,65.743-146.67,146.669,0,74.419,55.731,135.99,127.648,145.335v42.883H346.13a1.471,1.471,0,0,0-1.5,1.335v39.88a1.5,1.5,0,0,0,1.5,1.5h44.218v42.215a1.471,1.471,0,0,0,1.335,1.5h39.879a1.5,1.5,0,0,0,1.5-1.5V721.57h44.218a1.5,1.5,0,0,0,1.5-1.5V680.189a1.363,1.363,0,0,0-1.5-1.335H433.4V635.3a146.535,146.535,0,0,0,96.111-228.931l48.723-48.723v41.715a1.5,1.5,0,0,0,1.5,1.5h37.21a1.5,1.5,0,0,0,1.5-1.5V287.4a1.774,1.774,0,0,0-1.669-1.5" transform="translate(-262.7 -285.9)" fill="#ff3a21"/>
      <path id="Path_2313" data-name="Path 2313" d="M443.219,382.1H312.4a1.471,1.471,0,0,0-1.5,1.335v31.7a1.471,1.471,0,0,0,1.5,1.335H443.219a1.363,1.363,0,0,0,1.5-1.335v-31.7a1.471,1.471,0,0,0-1.5-1.335" transform="translate(-230.474 -221.581)" fill="#ff3a21"/>
      <path id="Path_2314" data-name="Path 2314" d="M443.219,416H312.4a1.471,1.471,0,0,0-1.5,1.335v31.7a1.471,1.471,0,0,0,1.5,1.335H443.219a1.363,1.363,0,0,0,1.5-1.335v-31.7a1.471,1.471,0,0,0-1.5-1.335" transform="translate(-230.474 -198.918)" fill="#ff3a21"/>
    </g>
    <g id="Group_2244" data-name="Group 2244" transform="translate(1055.982 927.729)" opacity="0.1">
      <path id="Path_2347" data-name="Path 2347" d="M454.791,436H300.309a1.764,1.764,0,0,0-1.709,1.865v46.469a1.764,1.764,0,0,0,1.709,1.865H454.791a1.764,1.764,0,0,0,1.709-1.865V437.865A1.866,1.866,0,0,0,454.791,436" transform="translate(-158.378 -192.583)" fill="#dd1367"/>
      <path id="Path_2348" data-name="Path 2348" d="M454.791,372.5H300.309a1.764,1.764,0,0,0-1.709,1.865v46.469a1.764,1.764,0,0,0,1.709,1.865H454.791a1.764,1.764,0,0,0,1.709-1.865V374.365a1.764,1.764,0,0,0-1.709-1.865" transform="translate(-158.378 -227.772)" fill="#dd1367"/>
      <path id="Path_2349" data-name="Path 2349" d="M451.365,353.857l-74.132-74.132a1.414,1.414,0,0,0-1.865,0l-74.132,74.132a1.269,1.269,0,0,0,.933,2.176H450.433a1.287,1.287,0,0,0,.932-2.176" transform="translate(-157.128 -279.375)" fill="#dd1367"/>
      <path id="Path_2350" data-name="Path 2350" d="M443.176,522.354l74.132-74.132a1.415,1.415,0,0,0,0-1.865l-74.132-74.132a1.3,1.3,0,0,0-2.176.932V521.421a1.3,1.3,0,0,0,2.176.933" transform="translate(-79.469 -228.116)" fill="#dd1367"/>
      <path id="Path_2351" data-name="Path 2351" d="M301.224,514.276l74.132,74.132a1.415,1.415,0,0,0,1.865,0l74.132-74.132a1.269,1.269,0,0,0-.932-2.176H302.156a1.3,1.3,0,0,0-.932,2.176" transform="translate(-157.116 -150.413)" fill="#dd1367"/>
      <path id="Path_2352" data-name="Path 2352" d="M282.857,372.224l-74.133,74.133a1.415,1.415,0,0,0,0,1.865l74.133,74.132a1.3,1.3,0,0,0,2.176-.933V373.156a1.3,1.3,0,0,0-2.176-.932" transform="translate(-208.375 -228.116)" fill="#dd1367"/>
    </g>
  </g>
</svg>
